packages/kaspersky-hexa-ui-icons/src/iconsSVGs/16/Advertisement.svg

<svg width="16" height="16" viewBox="0 0 16 16" fill="none" xmlns="http://www.w3.org/2000/svg">
<path fill-rule="evenodd" clip-rule="evenodd" d="M13.2454 3.38288C13.2454 1.94547 11.6778 1.05718 10.4447 1.79585L7.65689 3.46585H3.78643C2.43333 3.46585 1.33643 4.56275 1.33643 5.91585V7.74372C1.33643 9.09681 2.43333 10.1937 3.78642 10.1937H4.67169L4.67167 13.7346C4.67166 14.2869 5.11938 14.7346 5.67166 14.7346C6.22395 14.7346 6.67166 14.2869 6.67167 13.7346L6.67169 10.1937H7.63411L10.4537 11.8611C11.687 12.5904 13.2454 11.7014 13.2454 10.2687V8.13958C13.2766 8.14178 13.3081 8.1429 13.3399 8.1429C14.0711 8.1429 14.6639 7.55009 14.6639 6.81883C14.6639 6.08756 14.0711 5.49476 13.3399 5.49476C13.3081 5.49476 13.2766 5.49588 13.2454 5.49807V3.38288ZM11.1128 2.91106C11.4794 2.69146 11.9454 2.95554 11.9454 3.38288V10.2687C11.9454 10.6947 11.4821 10.9589 11.1154 10.7421L8.17079 9.00079V4.67341L11.1128 2.91106ZM2.63643 5.91585C2.63643 5.28072 3.1513 4.76585 3.78643 4.76585H6.87075V8.89372H3.78642C3.1513 8.89372 2.63643 8.37884 2.63643 7.74372V5.91585Z" fill="black"/>
</svg>

<svg xmlns="http://www.w3.org/2000/svg" width="16" height="16" fill="none" viewBox="0 0 16 16"><path fill="#000" fill-rule="evenodd" d="M13.2454 3.3829c0-1.4374-1.5676-2.3257-2.8007-1.587l-2.7878 1.67H3.7864c-1.353 0-2.45 1.0969-2.45 2.45v1.8278c0 1.3531 1.097 2.45 2.45 2.45h.8853v3.5409c0 .5523.4477 1 1 1s1-.4477 1-1v-3.5409h.9624l2.8196 1.6674c1.2333.7293 2.7917-.1597 2.7917-1.5924V8.1396q.0468.0033.0945.0033c.7312 0 1.324-.5928 1.324-1.324s-.5928-1.3241-1.324-1.3241q-.0477 0-.0945.0033zm-2.1326-.4718c.3666-.2196.8326.0444.8326.4718v6.8858c0 .426-.4633.6902-.83.4734L8.1708 9.0008V4.6734zM2.6364 5.9159c0-.6352.5149-1.15 1.15-1.15h3.0844v4.1278H3.7864c-.6351 0-1.15-.5149-1.15-1.15z"/></svg>
